common/src/main/resources/icons/actions/AddMulticaret.svg

<svg xmlns="http://www.w3.org/2000/svg" width="16" height="16" data-big="true" style="isolation:isolate" viewBox="0 0 214 214"><defs><clipPath id="a"><path d="M0 0h214v214H0z"/></clipPath></defs><g fill="#91DC5A" clip-path="url(#a)"><path d="M77.237 30.963v96.035h21.24v19.998h-21.24v36.042c0 10.84 20.108 10.965 20.965 10.965v19.998c-11.507 0-23.071-3.051-30.964-9.553-7.893 6.502-19.456 9.553-30.963 9.553v-19.998c.856 0 20.965-.125 20.965-10.965v-36.042H36v-19.998h21.24V30.963c0-10.84-20.109-10.965-20.965-10.965V0c11.507 0 23.07 3.052 30.963 9.553C75.13 3.052 86.694 0 98.201 0v19.998c-.856 0-20.964.125-20.964 10.965M157.712 123.922c-2.539.017-4.206 1.631-4.19 4.055l.187 28.184-29.519.196c-2.538.017-4.206 1.631-4.19 4.055l.054 8.052c.016 2.424 1.705 4.015 4.244 3.998l29.519-.196.187 28.184c.016 2.424 1.705 4.015 4.244 3.998l8.434-.056c2.539-.017 4.206-1.631 4.19-4.055l-.187-28.184 29.519-.196c2.538-.017 4.206-1.631 4.19-4.054l-.054-8.053c-.016-2.424-1.705-4.015-4.244-3.998l-29.519.196-.187-28.184c-.016-2.423-1.705-4.015-4.244-3.998z"/></g></svg>

<!--
  - The MIT License (MIT)
  -
  - Copyright (c) 2015-2024 Elior "Mallowigi" Boukhobza
  -
  - Permission is hereby granted, free of charge, to any person obtaining a copy
  - of this software and associated documentation files (the "Software"), to deal
  - in the Software without restriction, including without limitation the rights
  - to use, copy, modify, merge, publish, distribute, sublicense, and/or sell
  - copies of the Software, and to permit persons to whom the Software is
  - furnished to do so, subject to the following conditions:
  -
  - The above copyright notice and this permission notice shall be included in all
  - copies or substantial portions of the Software.
  -
  - THE SOFTWARE IS PROVIDED "AS IS", WITHOUT WARRANTY OF ANY KIND, EXPRESS OR
  - IMPLIED, INCLUDING BUT NOT LIMITED TO THE WARRANTIES OF MERCHANTABILITY,
  - FITNESS FOR A PARTICULAR PURPOSE AND NONINFRINGEMENT. IN NO EVENT SHALL THE
  - AUTHORS OR COPYRIGHT HOLDERS BE LIABLE FOR ANY CLAIM, DAMAGES OR OTHER
  - LIABILITY, WHETHER IN AN ACTION OF CONTRACT, TORT OR OTHERWISE, ARISING FROM,
  - OUT OF OR IN CONNECTION WITH THE SOFTWARE OR THE USE OR OTHER DEALINGS IN THE
  - SOFTWARE.
  -->

<svg data-big="true" xmlns="http://www.w3.org/2000/svg" style="isolation:isolate" viewBox="0 0 214 214" width="16px"
     height="16px">
  <defs>
    <clipPath id="_clipPath_J9ZpjYIKiB9YZHIIzGL2SV653De0T9EY">
      <rect width="214" height="214"/>
    </clipPath>
  </defs>
  <g clip-path="url(#_clipPath_J9ZpjYIKiB9YZHIIzGL2SV653De0T9EY)" fill="#91DC5A">
    <path
      d=" M 77.237 30.963 L 77.237 126.998 L 98.477 126.998 L 98.477 146.996 L 77.237 146.996 L 77.237 183.038 C 77.237 193.878 97.345 194.003 98.202 194.003 L 98.202 214.001 C 86.695 214.001 75.131 210.95 67.238 204.448 C 59.345 210.95 47.782 214.001 36.275 214.001 L 36.275 194.003 C 37.131 194.003 57.24 193.878 57.24 183.038 L 57.24 146.996 L 36 146.996 L 36 126.998 L 57.24 126.998 L 57.24 30.963 C 57.24 20.123 37.131 19.998 36.275 19.998 L 36.275 0 C 47.782 0 59.345 3.052 67.238 9.553 C 75.13 3.052 86.694 0 98.201 0 L 98.201 19.998 C 97.345 19.998 77.237 20.123 77.237 30.963 Z "/>
    <path
      d=" M 157.712 123.922 C 155.173 123.939 153.506 125.553 153.522 127.977 L 153.709 156.161 L 124.19 156.357 C 121.652 156.374 119.984 157.988 120 160.412 L 120.054 168.464 C 120.07 170.888 121.759 172.479 124.298 172.462 L 153.817 172.266 L 154.004 200.45 C 154.02 202.874 155.709 204.465 158.248 204.448 L 166.682 204.392 C 169.221 204.375 170.888 202.761 170.872 200.337 L 170.685 172.153 L 200.204 171.957 C 202.742 171.94 204.41 170.326 204.394 167.903 L 204.34 159.85 C 204.324 157.426 202.635 155.835 200.096 155.852 L 170.577 156.048 L 170.39 127.864 C 170.374 125.441 168.685 123.849 166.146 123.866 L 157.712 123.922 Z "/>
  </g>
</svg>
